X: 22591
T: Lady Of The Lake
R: barndance
M: 4/4
K: Gmajor
|:B,A,|G,B,DG BAGB|dBGA BAGB|cdcB AGFG|AGFE D/E/D C/B,/A,|
G,B,DG BAGB|dBGA B2 G/A/B|c2 cB AGFE|DGGF G2:|
|:Bc|dcBd g2 gB|cB A2 a3 g|f3 g f2 ed|edd^c d2 B=c|
dcBd gdgd|cB A2 a3 e|fedB cAFD|G/A/G FA G2:|

